images/timeout.svg

<svg xmlns="http://www.w3.org/2000/svg" viewBox="0 0 24 24">
  <defs/>
  <path fill="#E5E5E5" fill-rule="nonzero" d="M22.1393673.03485621c-1.216174-.0764434-2.4818479-.02703023-3.761678.14705396-1.0621895.14454062-2.1483318.37690578-3.2282866.69088328-.7310638.21249558-1.267596.81251934-1.4002524 1.56599896-.1328909.75466516.166219 1.50639018.7805638 1.96173106 1.0224391.75788982 1.9921907 1.59890946 2.8823016 2.49972756.0842344.08526379.1676721.17161827.2508285.2583047l-1.6602215 1.66937775c-.129422.13012449-.1372971.33939541-.0180469.47909903.9955797 1.16652059 1.7970498 2.53837609 2.3175976 3.96690019.1183127.3246948-.0555001.6971903-.378235.8159337-.3249381.1195495-.6969387-.0520688-.8159544-.3790872-.4571728-1.2560997-1.1264082-2.4193007-1.9890503-3.4573091-.1285783-.1546888-.3701255-.1660226-.5109383-.0230943l-1.6926121 1.7015769c-.129469.1301719-.137344.3394903-.0180469.4791939.9959547 1.1664731 1.7973311 2.5380915 2.3175976 3.9666157.1184065.325074-.0550783.6968109-.3780007.8162655-.3239536.1198341-.696798-.0530645-.8158607-.3797036-.4517351-1.2394548-1.1397207-2.4347127-1.9895189-3.45674-.1286252-.1546889-.3699381-.1662597-.5108915-.0230469l-1.69214343 1.7015769c-.12946897.130172-.13729711.3394902-.01795316.479194.99590789 1.1659988 1.79728419 2.5375698 2.31759759 3.966663.1185471.3255483-.0560626.6966213-.3787506.8163131-.3235787.1199763-.6962824-.0536811-.8151108-.3797986-.4577351-1.2563367-1.12711119-2.4195379-1.989472-3.4571668-.12857834-.1546888-.36993811-.1663072-.51093834-.0231417l-.39961004.401802c-.13612523.136811-.13682835.3594547-.00154688.4971667.13532835.1377118.35535996.1383757.49143831.0015649l.12689084-.1275638c.68962614.8923296 1.2502052 1.9052047 1.63097141 2.9502789.2483442.6815886 1.0267517 1.0493421 1.7059716.797297.6762199-.2509544 1.0395017-1.0406639.7922357-1.7197868-.5118758-1.4060463-1.2815646-2.7591228-2.2348162-3.9323298l1.192502-1.1990991c.6892511.8915235 1.2497833 1.9042562 1.6309714 2.9500891.2484848.681731 1.0265642 1.0482514 1.7060653.7971548.6775793-.2503853 1.040533-1.0377713.7920952-1.7199291-.5119228-1.405572-1.2815647-2.7586486-2.2348163-3.9321876l1.1929239-1.1991939c.6898136.8926142 1.2502052 1.9053944 1.6306432 2.9506582.1916255.5255247.6937513.8786249 1.2495022.8786249.5091571 0 .9927204-.3105157 1.2074083-.7781862.1488751-.3243154.1637346-.6876586.0416719-1.0234026-.5122509-1.4058092-1.2819397-2.7590281-2.2348632-3.93256703l1.4201743-1.42800251c.5304853.58508601 1.0361737 1.19729709 1.5089088 1.82999424.38386.5137641.9660016.8017072 1.5828776.8017072.1370627 0 .2759535-.0142264.4146569-.0433432.7550168-.1585299 1.3365022-.7261174 1.5175806-1.48125677.179766-.74963848.3326725-1.50648502.4545945-2.24953192.2495161-1.52113825.3779069-3.03601687.3816705-4.50262044.0027053-1.05052766-.8146087-1.92488459-1.860626-1.99065816zm.7933138 6.37799703c-.1191096.72611743-.2685942 1.46589225-.4443289 2.19883837-.118922.49588623-.4865633.85425023-.9833922.95853002-.4974383.10461175-.9962361-.08483699-1.3018616-.49384711-1.4932993-1.99843527-3.2620835-3.76037971-5.2625712-5.24310658-.40486-.30008302-.5944228-.77534091-.5070946-1.27127457.0870939-.49465327.4265164-.87355076.9079702-1.0134915 1.0474705-.30444579 2.100191-.52979258 3.1289584-.66973331C19.697035.71189243 20.8868183.66048756 22.096289.736599c.6795481.04277416 1.210502.60799058 1.2087761 1.28687623-.0037116 1.42880867-.1290086 2.90556043-.372384 4.389378zM7.5106868 15.0191374c-1.03167358-.8667695-2.1881755-1.5395852-3.43753695-1.9996683-.32296928-.118933-.49659457-.4901482-.37790687-.8159337.12046895-.3306224.48679768-.5009129.81632948-.3795139 1.42050235.5230113 2.78508274 1.3290339 3.94627216 2.331002.13762523.1187907.34228182.1109188.47048515-.018115l1.69214343-1.7015769c.1436721-.1429283.1317658-.3898045-.0229688-.5197867-1.03228295-.8673385-2.18878486-1.5402017-3.43753693-2.00014244-.32292241-.11893303-.49612582-.4896266-.37743813-.81555431.12042208-.33071728.48637581-.50096034.81586073-.37946655 1.42200236.52348553 2.78658273 1.3294133 3.94622533 2.3304804.1375783.1187907.3422349.1109662.470532-.0180676l1.6921434-1.70157694c.1436253-.14288087.1317659-.38970958-.022875-.51973923-1.0309705-.86662723-2.1873786-1.53944294-3.4369276-1.99962081-.32306302-.11898045-.49696956-.48991113-.37814124-.81617079.12046895-.3307647.48665704-.50100775.81632944-.37946654 1.4216743.52339068 2.7860672 1.3294607 3.9457097 2.33095457.1375784.11879076.3422818.11096622.4706258-.01802016l.8972827-.9021459c.1361252-.13685834.1367815-.35945469.0015-.49716662-.1353284-.13771192-.35536-.13837582-.4914852-.00151748l-.6729855.67660942c-1.1670956-.95947845-2.5135823-1.73420288-3.9128033-2.24938965-.6884543-.25384709-1.45387743.10371074-1.7063466.79701252-.12210957.33508006-.1075783.69818619.0410157 1.02245415.14943774.32621225.41625069.57389454.7514075.6975223 1.0390798.38264378 2.0454409.9454417 2.931708 1.63751052l-1.1918458 1.19848264c-1.1671425-.95905168-2.51381662-1.73363385-3.91327206-2.24886804-.68807927-.25370482-1.45340866.10371074-1.70583095.7969651-.1222502.33541201-.10762518.69880268.04110944 1.02316548.14943775.32592776.41615694.57323066.750845.69633676 1.03837672.3823592 2.04478463.9452994 2.93208298 1.6380322l-1.19184573 1.1984826c-1.16836131-.9598578-2.51508229-1.7346297-3.91341273-2.2494845-.68831364-.2532781-1.45364303.1043746-1.70620595.7974393-.12196896.3357914-.10706268.6993717.04190632 1.0237345.14957837.3256906.41620381.5728039.75061062.6958626 1.03884547.3825489 2.04530026.9453468 2.93212985 1.6376053-.19171906.1945704-1.06678301 1.0324601-1.19775198 1.261648-.72229807-.0199169-1.46550243.0205335-2.21587867.1226319-.74887624.1018613-1.51467439.2657025-2.2760194.4870184-.55050091.1600948-.95456408.6120689-1.05450175 1.1797038-.10007829.568441.12510959 1.1345584.58771973 1.4774631.71175118.5275637 1.3869398 1.113124 2.00676895 1.7403676.5565478.5632247 1.08042366 1.1723061 1.5571432 1.8102196.35681309.4774866.93773593.6895079 1.50333062.5708121.56859469-.1193599 1.00654854-.5469118 1.14300189-1.1157797.12646896-.5274215.23414102-1.0601067.31992241-1.5832129.17568779-1.0710137.26610981-2.1377596.26873482-3.1707412.0016875-.6537523-.41821944-1.2165977-1.00828292-1.4206047l1.13193937-1.1384471c.14362524-.1428808.13162522-.3898044-.02301566-.5197392zm-.79569917 3.076989c-.00253653.9951393-.08981792 2.0238057-.25936508 3.0574514-.08301576.5061766-.18721906 1.0218376-.30970364 1.5325668-.07359387.3068168-.30117237.5285121-.60876663.5931001-.31326614.065584-.61518852-.0487492-.80765759-.3063426-.49589144-.6636633-1.04095485-1.2973089-1.62004956-1.8833908-.64486044-.6525667-1.34718973-1.2616954-2.08753471-1.8104091-.25078166-.1858921-.3682506-.4800949-.31420364-.7870066.05385946-.3060108.26404731-.5404625.56221968-.6271489.72890746-.2118316 1.4612368-.3686545 2.17673798-.4659158.8584233-.1167992 1.7061122-.1499942 2.51934793-.0988738.42107882.0265086.75004811.3760996.74897526.7959693zM21.4731787 3.51853169h-1.1135176V2.39198743c0-.19419089-.1555783-.35158273-.3475318-.35158273-.1919534 0-.3475318.15739184-.3475318.35158273v1.12649684h-1.1135644c-.1919064 0-.3475316.15739183-.3475316.35158272s.1555783.35158273.3475316.35158273h1.1135644v1.12654426c0 .19419089.1555784.35158272.3475318.35158272.1919535 0 .3475318-.15739183.3475318-.35158272V4.22164972h1.1135176c.1919066 0 .3475318-.15739184.3475318-.35158273-.0000469-.19419089-.1556252-.3515353-.3475318-.3515353z"/>
</svg>

<?xml version="1.0" encoding="UTF-8"?>
<svg width="24px" height="24px" viewBox="0 0 24 24" version="1.1" xmlns="http://www.w3.org/2000/svg" xmlns:xlink="http://www.w3.org/1999/xlink">
    <title>timeout</title>
    <g id="timeout" stroke="none" stroke-width="1" fill="none" fill-rule="evenodd">
        <g fill="#E5E5E5" fill-rule="nonzero" id="Shape">
            <path d="M22.1393673,0.0348562118 C20.9231933,-0.0415871858 19.6575194,0.00782597819 18.3776893,0.181910167 C17.3154998,0.326450785 16.2293575,0.558815951 15.1494027,0.872793455 C14.4183389,1.08528903 13.8818067,1.68531279 13.7491503,2.43879241 C13.6162594,3.19345757 13.9153693,3.94518259 14.5297141,4.40052347 C15.5521532,5.15841329 16.5219048,5.99943293 17.4120157,6.90025103 C17.4962501,6.98551482 17.5796878,7.0718693 17.6628442,7.15855573 L16.0026227,8.82793348 C15.8732007,8.95805797 15.8653256,9.16732889 15.9845758,9.30703251 C16.9801555,10.4735531 17.7816256,11.8454086 18.3021734,13.2739327 C18.4204861,13.5986275 18.2466733,13.971123 17.9239384,14.0898664 C17.5990003,14.2094159 17.2269997,14.0377976 17.107984,13.7107792 C16.6508112,12.4546795 15.9815758,11.2914785 15.1189337,10.2534701 C14.9903554,10.0987813 14.7488082,10.0874475 14.6079954,10.2303758 L12.9153833,11.9319527 C12.7859143,12.0621246 12.7780393,12.271443 12.8973364,12.4111466 C13.8932911,13.5776197 14.6946675,14.9492381 15.214934,16.3777623 C15.3333405,16.7028363 15.1598557,17.0745732 14.8369333,17.1940278 C14.5129797,17.3138619 14.1401353,17.1409633 14.0210726,16.8143242 C13.5693375,15.5748694 12.8813519,14.3796115 12.0315537,13.3575842 C11.9029285,13.2028953 11.6616156,13.1913245 11.5206622,13.3345373 L9.82851877,15.0361142 C9.6990498,15.1662862 9.69122166,15.3756044 9.81056561,15.5153082 C10.8064735,16.681307 11.6078498,18.052878 12.1281632,19.4819712 C12.2467103,19.8075195 12.0721006,20.1785925 11.7494126,20.2982843 C11.4258339,20.4182606 11.0531302,20.2446032 10.9343018,19.9184857 C10.4765667,18.662149 9.80719061,17.4989478 8.9448298,16.4613189 C8.81625146,16.3066301 8.57489169,16.2950117 8.43389146,16.4381772 L8.03428142,16.8399792 C7.89815619,16.9767902 7.89745307,17.1994339 8.03273454,17.3371459 C8.16806289,17.4748577 8.3880945,17.4755216 8.52417285,17.3387108 L8.65106369,17.211147 C9.34068983,18.1034766 9.90126889,19.1163517 10.2820351,20.1614259 C10.5303793,20.8430145 11.3087868,21.210768 11.9880067,20.9587229 C12.6642266,20.7077685 13.0275084,19.918059 12.7802424,19.2389361 C12.2683666,17.8328898 11.4986778,16.4798133 10.5454262,15.3066063 L11.7379282,14.1075072 C12.4271793,14.9990307 12.9877115,16.0117634 13.3688996,17.0575963 C13.6173844,17.7393273 14.3954638,18.1058477 15.0749649,17.8547511 C15.7525442,17.6043658 16.1154979,16.8169798 15.8670601,16.134822 C15.3551373,14.72925 14.5854954,13.3761734 13.6322438,12.2026344 L14.8251677,11.0034405 C15.5149813,11.8960547 16.0753729,12.9088349 16.4558109,13.9540987 C16.6474364,14.4796234 17.1495622,14.8327236 17.7053131,14.8327236 C18.2144702,14.8327236 18.6980335,14.5222079 18.9127214,14.0545374 C19.0615965,13.730222 19.076456,13.3668788 18.9543933,13.0311348 C18.4421424,11.6253256 17.6724536,10.2721067 16.7195301,9.09856777 L18.1397044,7.67056526 C18.6701897,8.25565127 19.1758781,8.86786235 19.6486132,9.5005595 C20.0324732,10.0143236 20.6146148,10.3022667 21.2314908,10.3022667 C21.3685535,10.3022667 21.5074443,10.2880403 21.6461477,10.2589235 C22.4011645,10.1003936 22.9826499,9.5328061 23.1637283,8.77766673 C23.3434943,8.02802825 23.4964008,7.27118171 23.6183228,6.52813481 C23.8678389,5.00699656 23.9962297,3.49211794 23.9999933,2.02551437 C24.0026986,0.974986706 23.1853846,0.10062978 22.1393673,0.0348562118 Z M22.9326811,6.41285324 C22.8135715,7.13897067 22.6640869,7.87874549 22.4883522,8.61169161 C22.3694302,9.10757784 22.0017889,9.46594184 21.50496,9.57022163 C21.0075217,9.67483338 20.5087239,9.48538464 20.2030984,9.07637452 C18.7097991,7.07793925 16.9410149,5.31599481 14.9405272,3.83326794 C14.5356672,3.53318492 14.3461044,3.05792703 14.4334326,2.56199337 C14.5205265,2.0673401 14.859949,1.68844261 15.3414028,1.54850187 C16.3888733,1.24405608 17.4415938,1.01870929 18.4703612,0.878768559 C19.697035,0.711892432 20.8868183,0.660487567 22.096289,0.736599014 C22.7758371,0.779373173 23.306791,1.34458959 23.3050651,2.02347524 C23.3013535,3.45228391 23.1760565,4.92903567 22.9326811,6.41285324 L22.9326811,6.41285324 Z M7.5106868,15.0191374 C6.47901322,14.1523679 5.3225113,13.4795522 4.07314985,13.0194691 C3.75018057,12.9005361 3.57655528,12.5293209 3.69524298,12.2035354 C3.81571193,11.872913 4.18204066,11.7026225 4.51157246,11.8240215 C5.93207481,12.3470328 7.2966552,13.1530554 8.45784462,14.1550235 C8.59546985,14.2738142 8.80012644,14.2659423 8.92832977,14.1369085 L10.6204732,12.4353316 C10.7641453,12.2924033 10.752239,12.0455271 10.5975044,11.9155449 C9.56522145,11.0482064 8.40871954,10.3753432 7.15996747,9.91540246 C6.83704506,9.79646943 6.66384165,9.42577586 6.78252934,9.09984815 C6.90295142,8.76913087 7.26890515,8.59888781 7.59839007,8.7203816 C9.02039243,9.24386713 10.3849728,10.0497949 11.5446154,11.050862 C11.6821937,11.1696527 11.8868503,11.1618282 12.0151474,11.0327944 L13.7072908,9.33121746 C13.8509161,9.18833659 13.8390567,8.94150788 13.6844158,8.81147823 C12.6534453,7.944851 11.4970372,7.27203529 10.2474882,6.81185742 C9.92442518,6.69287697 9.75051864,6.32194629 9.86934696,5.99568663 C9.98981591,5.66492193 10.356004,5.49467888 10.6856764,5.61622009 C12.1073507,6.13961077 13.4717436,6.94568079 14.6313861,7.94717466 C14.7689645,8.06596542 14.9736679,8.05814088 15.1020119,7.9291545 L15.9992946,7.0270086 C16.1354198,6.89015026 16.1360761,6.66755391 16.0007946,6.52984198 C15.8654662,6.39213006 15.6454346,6.39146616 15.5093094,6.5283245 L14.8363239,7.20493392 C13.6692283,6.24545547 12.3227416,5.47073104 10.9235206,4.95554427 C10.2350663,4.70169718 9.46964317,5.05925501 9.217174,5.75255679 C9.09506443,6.08763685 9.1095957,6.45074298 9.2581897,6.77501094 C9.40762744,7.10122319 9.67444039,7.34890548 10.0095972,7.47253324 C11.048677,7.85517702 12.0550381,8.41797494 12.9413052,9.11004376 L11.7494594,10.3085264 C10.5823169,9.34947472 9.23564278,8.57489255 7.83618734,8.05965836 C7.14810807,7.80595354 6.38277868,8.1633691 6.13035639,8.85662346 C6.00810619,9.19203547 6.02273121,9.55542614 6.17146583,9.87978894 C6.32090358,10.2057167 6.58762277,10.4530196 6.92231083,10.5761257 C7.96068755,10.9584849 8.96709546,11.5214251 9.85439381,12.2141579 L8.66254808,13.4126405 C7.49418677,12.4527827 6.14746579,11.6780108 4.74913535,11.163156 C4.06082171,10.9098779 3.29549232,11.2675306 3.0429294,11.9605953 C2.92096044,12.2963867 2.93586672,12.659967 3.08483572,12.9843298 C3.23441409,13.3100204 3.50103953,13.5571337 3.83544634,13.6801924 C4.87429181,14.0627413 5.8807466,14.6255392 6.76757619,15.3177977 C6.57585713,15.5123681 5.70079318,16.3502578 5.56982421,16.5794457 C4.84752614,16.5595288 4.10432178,16.5999792 3.35394554,16.7020776 C2.6050693,16.8039389 1.83927115,16.9677801 1.07792614,17.189096 C0.527425229,17.3491908 0.123362059,17.8011649 0.0234243936,18.3687998 C-0.0766538973,18.9372408 0.148533976,19.5033582 0.611144117,19.8462629 C1.3228953,20.3738266 1.99808392,20.9593869 2.61791307,21.5866305 C3.17446087,22.1498552 3.69833673,22.7589366 4.17505627,23.3968501 C4.53186936,23.8743367 5.1127922,24.086358 5.67838689,23.9676622 C6.24698158,23.8483023 6.68493543,23.4207504 6.82138878,22.8518825 C6.94785774,22.324461 7.0555298,21.7917758 7.14131119,21.2686696 C7.31699898,20.1976559 7.407421,19.13091 7.41004601,18.0979284 C7.41173351,17.4441761 6.99182657,16.8813307 6.40176309,16.6773237 L7.53370246,15.5388766 C7.6773277,15.3959958 7.66532768,15.1490722 7.5106868,15.0191374 Z M6.71498763,18.0961264 C6.7124511,19.0912657 6.62516971,20.1199321 6.45562255,21.1535778 C6.37260679,21.6597544 6.26840349,22.1754154 6.14591891,22.6861446 C6.07232504,22.9929614 5.84474654,23.2146567 5.53715228,23.2792447 C5.22388614,23.3448287 4.92196376,23.2304955 4.72949469,22.9729021 C4.23360325,22.3092388 3.68853984,21.6755932 3.10944513,21.0895113 C2.46458469,20.4369446 1.7622554,19.8278159 1.02191042,19.2791022 C0.771128758,19.0932101 0.653659813,18.7990073 0.707706777,18.4920956 C0.761566242,18.1860848 0.97175409,17.9516331 1.26992646,17.8649467 C1.99883392,17.6531151 2.73116326,17.4962922 3.44666444,17.3990309 C4.30508774,17.2822317 5.15277664,17.2490367 5.96601237,17.3001571 C6.38709119,17.3266657 6.71606048,17.6762567 6.71498763,18.0961264 L6.71498763,18.0961264 Z M21.4731787,3.51853169 L20.3596611,3.51853169 L20.3596611,2.39198743 C20.3596611,2.19779654 20.2040828,2.0404047 20.0121293,2.0404047 C19.8201759,2.0404047 19.6645975,2.19779654 19.6645975,2.39198743 L19.6645975,3.51848427 L18.5510331,3.51848427 C18.3591267,3.51848427 18.2035015,3.6758761 18.2035015,3.87006699 C18.2035015,4.06425788 18.3590798,4.22164972 18.5510331,4.22164972 L19.6645975,4.22164972 L19.6645975,5.34819398 C19.6645975,5.54238487 19.8201759,5.6997767 20.0121293,5.6997767 C20.2040828,5.6997767 20.3596611,5.54238487 20.3596611,5.34819398 L20.3596611,4.22164972 L21.4731787,4.22164972 C21.6650853,4.22164972 21.8207105,4.06425788 21.8207105,3.87006699 C21.8206636,3.6758761 21.6650853,3.51853169 21.4731787,3.51853169 Z"></path>
        </g>
    </g>
</svg>
